storage/app/icons/phosphoricons/thin/currency-circle-dollar-thin.svg

<svg xmlns="http://www.w3.org/2000/svg" fill="currentColor" viewBox="0 0 256 256"><path d="M128 28a100 100 0 1 0 100 100A100.11 100.11 0 0 0 128 28m0 192a92 92 0 1 1 92-92 92.1 92.1 0 0 1-92 92m36-72a24 24 0 0 1-24 24h-8v12a4 4 0 0 1-8 0v-12h-20a4 4 0 0 1 0-8h36a16 16 0 0 0 0-32h-24a24 24 0 0 1 0-48h8V72a4 4 0 0 1 8 0v12h20a4 4 0 0 1 0 8h-36a16 16 0 0 0 0 32h24a24 24 0 0 1 24 24"/></svg>

<svg xmlns="http://www.w3.org/2000/svg" viewBox="0 0 256 256" fill="currentColor"><path d="M128,28A100,100,0,1,0,228,128,100.11,100.11,0,0,0,128,28Zm0,192a92,92,0,1,1,92-92A92.1,92.1,0,0,1,128,220Zm36-72a24,24,0,0,1-24,24h-8v12a4,4,0,0,1-8,0V172H104a4,4,0,0,1,0-8h36a16,16,0,0,0,0-32H116a24,24,0,0,1,0-48h8V72a4,4,0,0,1,8,0V84h20a4,4,0,0,1,0,8H116a16,16,0,0,0,0,32h24A24,24,0,0,1,164,148Z"/></svg>
